fs/multiselect_ltr_24_filled.svg

<svg viewBox="0 0 24 24" fill="none" xmlns="http://www.w3.org/2000/svg" height="1em" width="1em">
  <path d="M6.70711 3.29289C6.31658 2.90237 5.68342 2.90237 5.29289 3.29289L4 4.58579L3.70711 4.29289C3.31658 3.90237 2.68342 3.90237 2.29289 4.29289C1.90237 4.68342 1.90237 5.31658 2.29289 5.70711L3.29289 6.70711C3.68342 7.09763 4.31658 7.09763 4.70711 6.70711L6.70711 4.70711C7.09763 4.31658 7.09763 3.68342 6.70711 3.29289ZM9.99951 16.9933H21.0034C21.5557 16.9933 22.0034 17.441 22.0034 17.9933C22.0034 18.5061 21.6174 18.9288 21.1201 18.9866L21.0034 18.9933H9.99951C9.44723 18.9933 8.99951 18.5456 8.99951 17.9933C8.99951 17.4805 9.38555 17.0578 9.88289 17L9.99951 16.9933ZM9.99951 11H21.0034C21.5557 11 22.0034 11.4477 22.0034 12C22.0034 12.5128 21.6174 12.9355 21.1201 12.9933L21.0034 13H9.99951C9.44723 13 8.99951 12.5523 8.99951 12C8.99951 11.4872 9.38555 11.0645 9.88289 11.0067L9.99951 11ZM9.99951 5.00004H21.0034C21.5557 5.00004 22.0034 5.44775 22.0034 6.00004C22.0034 6.51287 21.6174 6.93555 21.1201 6.99331L21.0034 7.00004H9.99951C9.44723 7.00004 8.99951 6.55232 8.99951 6.00004C8.99951 5.4872 9.38555 5.06453 9.88289 5.00677L9.99951 5.00004ZM5.29289 16.2929C5.68342 15.9024 6.31658 15.9024 6.70711 16.2929C7.09763 16.6834 7.09763 17.3166 6.70711 17.7071L4.70711 19.7071C4.31658 20.0976 3.68342 20.0976 3.29289 19.7071L2.29289 18.7071C1.90237 18.3166 1.90237 17.6834 2.29289 17.2929C2.68342 16.9024 3.31658 16.9024 3.70711 17.2929L4 17.5858L5.29289 16.2929Z" fill="#212121"/>
</svg>

<svg viewBox="0 0 24 24" fill="none" xmlns="http://www.w3.org/2000/svg" height="1em" width="1em">
  <path d="M6.707 3.293a1 1 0 0 0-1.414 0L4 4.586l-.293-.293a1 1 0 0 0-1.414 1.414l1 1a1 1 0 0 0 1.414 0l2-2a1 1 0 0 0 0-1.414ZM10 16.993h11.003a1 1 0 0 1 .117 1.994l-.117.006H10A1 1 0 0 1 9.883 17l.117-.007ZM10 11h11.003a1 1 0 0 1 .117 1.993l-.117.007H10a1 1 0 0 1-.117-1.993L10 11Zm0-6h11.003a1 1 0 0 1 .117 1.993L21.003 7H10a1 1 0 0 1-.117-1.993L10 5ZM5.293 16.293a1 1 0 0 1 1.414 1.414l-2 2a1 1 0 0 1-1.414 0l-1-1a1 1 0 1 1 1.414-1.414l.293.293 1.293-1.293Z" fill="#212121"/>
</svg>
